assets/images/clock.svg

<svg xmlns="http://www.w3.org/2000/svg" width="81.182" height="81.182"><path d="M40.591 81.182c-22.41 0-40.591-18.18-40.591-40.591s18.181-40.591 40.591-40.591c22.411 0 40.591 18.18 40.591 40.591s-18.181 40.591-40.591 40.591zm0-71.166c-16.841 0-30.574 13.733-30.574 30.575s13.733 30.575 30.574 30.575 30.575-13.733 30.575-30.575-13.734-30.575-30.575-30.575zm19.109 36.308c0 1.014-.897 1.911-1.911 1.911h-22.931c-1.015 0-1.911-.896-1.911-1.911v-26.753c0-1.014.896-1.911 1.911-1.911h3.821c1.015 0 1.911.897 1.911 1.911v21.02h17.198c1.014 0 1.911.896 1.911 1.911v3.822z"/></svg>

<?xml version="1.0" encoding="utf-8"?>
<!-- Generator: Adobe Illustrator 16.2.1, SVG Export Plug-In . SVG Version: 6.00 Build 0)  -->
<!DOCTYPE svg PUBLIC "-//W3C//DTD SVG 1.1//EN" "http://www.w3.org/Graphics/SVG/1.1/DTD/svg11.dtd">
<svg version="1.1" id="Layer_1" xmlns="http://www.w3.org/2000/svg" xmlns:xlink="http://www.w3.org/1999/xlink" x="0px" y="0px"
	 width="81.182px" height="81.182px" viewBox="0 0 81.182 81.182" style="enable-background:new 0 0 81.182 81.182;"
	 xml:space="preserve">
<g>
	<path d="M40.591,81.182C18.181,81.182,0,63.002,0,40.591C0,18.18,18.181,0,40.591,0c22.411,0,40.591,18.18,40.591,40.591
		C81.182,63.002,63.001,81.182,40.591,81.182z M40.591,10.016c-16.841,0-30.574,13.733-30.574,30.575S23.75,71.166,40.591,71.166
		s30.575-13.733,30.575-30.575S57.432,10.016,40.591,10.016z M59.7,46.324c0,1.014-0.897,1.911-1.911,1.911H34.858
		c-1.015,0-1.911-0.896-1.911-1.911V19.571c0-1.014,0.896-1.911,1.911-1.911h3.821c1.015,0,1.911,0.897,1.911,1.911v21.02h17.198
		c1.014,0,1.911,0.896,1.911,1.911V46.324z"/>
</g>
</svg>
